X: 40
T: White Joak
T: Longways for as many as will.
%R: jig
B: Daniel Wright "Wright's Compleat Collection of Celebrated Country Dances" 1740 p.20
S: http://library.efdss.org/cgi-bin/dancebooks.cgi
Z: 2014 John Chambers <jc:trillian.mit.edu>
N: The 2nd Strain has initial repeat but no final repeat; not fixed.
M: 6/8
L: 1/8
K: D
% - - - - - - - - - - - - - - - - - - - - - - - - -
|:\
d2d fed | dcB A2G/F/ | B2B Bcd | A2F DEF |\
G3 BAG | F2E D3 :||: A2A ABc | def e3 |
AFA ABc | def e2d/c/ | B2d A2d | G2d F>GA |\
B2B B>cd | A2F D>EF | G3 BAG | FGE D3 |]
% - - - - - - - - - - - - - - - - - - - - - - - - -
%%begintext align
%% The 1st Man with his Right Hand turns 2d Wo. 1st Wo.
%% at the same time turns 2d Man with her left Hand, then
%% 1st Man turns his Partner with his left Hand, in the 2d
%% Cu. Place .| The 1st Cu. does the same with the 3d :| The
%% 1st Cu. cross up above the 3d, Right & Left quite round
%% with the 2d Cu. .| The 1st & 3d Cu. Hands down abreast &
%% all Foot it, 1st Cu. half Figures through the 3d and
%% turn in the 2d Cu. Place.
%%endtext
% - - - - - - - - - - - - - - - - - - - - - - - - -
%%sep 2 4 300
